demos/KANBAN/public/icons/Revenue.svg

<svg width="30" height="30" viewBox="0 0 30 30" fill="none" xmlns="http://www.w3.org/2000/svg">
<rect width="30" height="30" rx="4" fill="#ECEAFF"/>
<mask id="path-2-outside-1_1_274" maskUnits="userSpaceOnUse" x="2" y="2" width="27" height="25" fill="black">
<rect fill="white" x="2" y="2" width="27" height="25"/>
<path d="M18.7814 15.2144H12.2181C12.0251 15.2144 11.8683 15.3713 11.8683 15.5643V26.444C11.8683 26.637 12.0251 26.7938 12.2181 26.7938H18.7808C18.9738 26.7938 19.1307 26.637 19.1307 26.444L19.1309 15.5643C19.1309 15.3713 18.9741 15.2144 18.781 15.2144H18.7814ZM12.5685 20.6306V19.5156H18.432V20.6312H12.5685V20.6306ZM18.4315 21.3305V22.4461H12.5685V21.3305H18.4315ZM12.5685 18.8159V17.7003H18.432V18.8159H12.5685ZM12.5685 23.1459H18.432V24.2615H12.5685V23.1459ZM18.4315 15.9141V17.0007L12.5685 17.0004V15.9139L18.4315 15.9141ZM12.5685 26.0935V24.961H18.432L18.4318 26.0935H12.5685ZM27.6502 9.77423H21.0875C20.8944 9.77423 20.7376 9.93105 20.7376 10.1241L20.7374 26.4434C20.7374 26.6364 20.8942 26.7932 21.0873 26.7932H27.65C27.843 26.7932 27.9998 26.6364 27.9998 26.4434L28 10.1241C28 9.93105 27.8438 9.77423 27.6502 9.77423ZM21.4374 18.8149V17.6993H27.3008V18.8149H21.4374ZM27.3008 19.5146V20.6302H21.4374V19.5146H27.3008ZM21.4374 17V15.8844H27.3008V17H21.4374ZM21.4374 15.1848V14.0691H27.3008V15.1848H21.4374ZM21.4374 21.3299H27.3008V22.4455H21.4374V21.3299ZM27.3008 13.3691H21.4374V12.2535H27.3008V13.3691ZM21.4374 23.1455H27.3008V24.2611H21.4374V23.1455ZM27.3008 10.4736V11.5536H21.4374V10.4736H27.3008ZM21.4374 26.0931V24.9606H27.3008V26.0931H21.4374ZM9.91254 20.6535H3.34984C3.15682 20.6535 3 20.8103 3 21.0033V26.4435C3 26.6365 3.15681 26.7933 3.34984 26.7933H9.91254C10.1056 26.7933 10.2624 26.6365 10.2624 26.4435V21.0039C10.2626 20.8106 10.1056 20.6538 9.91254 20.6538V20.6535ZM3.69974 23.1664H9.56316V24.2796H3.69974V23.1664ZM9.56316 21.3534V22.4666H3.69974V21.3534H9.56316ZM3.69974 26.0933V24.9801H9.56316V26.0933H3.69974ZM16.6634 11.6682L24.632 3.69967H20.9719C20.7789 3.69967 20.6221 3.54286 20.6221 3.34984C20.6221 3.15681 20.7789 3 20.9719 3H25.4769C25.6699 3 25.8267 3.15681 25.8267 3.34984V7.8548C25.8267 8.04781 25.6699 8.20463 25.4769 8.20463C25.2839 8.20463 25.127 8.04782 25.127 7.8548V4.19475L16.9112 12.4106C16.7747 12.5471 16.5532 12.5471 16.4161 12.4106L13.8158 9.81028L5.77172 17.8548C5.70358 17.923 5.61368 17.9576 5.52439 17.9576C5.4351 17.9576 5.34541 17.9232 5.27707 17.8548C5.14059 17.7184 5.14059 17.4969 5.27707 17.3604L13.569 9.0685C13.7054 8.93203 13.9269 8.93203 14.064 9.0685L16.6634 11.6682Z"/>
</mask>
<path d="M18.7814 15.2144H12.2181C12.0251 15.2144 11.8683 15.3713 11.8683 15.5643V26.444C11.8683 26.637 12.0251 26.7938 12.2181 26.7938H18.7808C18.9738 26.7938 19.1307 26.637 19.1307 26.444L19.1309 15.5643C19.1309 15.3713 18.9741 15.2144 18.781 15.2144H18.7814ZM12.5685 20.6306V19.5156H18.432V20.6312H12.5685V20.6306ZM18.4315 21.3305V22.4461H12.5685V21.3305H18.4315ZM12.5685 18.8159V17.7003H18.432V18.8159H12.5685ZM12.5685 23.1459H18.432V24.2615H12.5685V23.1459ZM18.4315 15.9141V17.0007L12.5685 17.0004V15.9139L18.4315 15.9141ZM12.5685 26.0935V24.961H18.432L18.4318 26.0935H12.5685ZM27.6502 9.77423H21.0875C20.8944 9.77423 20.7376 9.93105 20.7376 10.1241L20.7374 26.4434C20.7374 26.6364 20.8942 26.7932 21.0873 26.7932H27.65C27.843 26.7932 27.9998 26.6364 27.9998 26.4434L28 10.1241C28 9.93105 27.8438 9.77423 27.6502 9.77423ZM21.4374 18.8149V17.6993H27.3008V18.8149H21.4374ZM27.3008 19.5146V20.6302H21.4374V19.5146H27.3008ZM21.4374 17V15.8844H27.3008V17H21.4374ZM21.4374 15.1848V14.0691H27.3008V15.1848H21.4374ZM21.4374 21.3299H27.3008V22.4455H21.4374V21.3299ZM27.3008 13.3691H21.4374V12.2535H27.3008V13.3691ZM21.4374 23.1455H27.3008V24.2611H21.4374V23.1455ZM27.3008 10.4736V11.5536H21.4374V10.4736H27.3008ZM21.4374 26.0931V24.9606H27.3008V26.0931H21.4374ZM9.91254 20.6535H3.34984C3.15682 20.6535 3 20.8103 3 21.0033V26.4435C3 26.6365 3.15681 26.7933 3.34984 26.7933H9.91254C10.1056 26.7933 10.2624 26.6365 10.2624 26.4435V21.0039C10.2626 20.8106 10.1056 20.6538 9.91254 20.6538V20.6535ZM3.69974 23.1664H9.56316V24.2796H3.69974V23.1664ZM9.56316 21.3534V22.4666H3.69974V21.3534H9.56316ZM3.69974 26.0933V24.9801H9.56316V26.0933H3.69974ZM16.6634 11.6682L24.632 3.69967H20.9719C20.7789 3.69967 20.6221 3.54286 20.6221 3.34984C20.6221 3.15681 20.7789 3 20.9719 3H25.4769C25.6699 3 25.8267 3.15681 25.8267 3.34984V7.8548C25.8267 8.04781 25.6699 8.20463 25.4769 8.20463C25.2839 8.20463 25.127 8.04782 25.127 7.8548V4.19475L16.9112 12.4106C16.7747 12.5471 16.5532 12.5471 16.4161 12.4106L13.8158 9.81028L5.77172 17.8548C5.70358 17.923 5.61368 17.9576 5.52439 17.9576C5.4351 17.9576 5.34541 17.9232 5.27707 17.8548C5.14059 17.7184 5.14059 17.4969 5.27707 17.3604L13.569 9.0685C13.7054 8.93203 13.9269 8.93203 14.064 9.0685L16.6634 11.6682Z" fill="#817AF3"/>
<path d="M18.7814 15.2144H12.2181C12.0251 15.2144 11.8683 15.3713 11.8683 15.5643V26.444C11.8683 26.637 12.0251 26.7938 12.2181 26.7938H18.7808C18.9738 26.7938 19.1307 26.637 19.1307 26.444L19.1309 15.5643C19.1309 15.3713 18.9741 15.2144 18.781 15.2144H18.7814ZM12.5685 20.6306V19.5156H18.432V20.6312H12.5685V20.6306ZM18.4315 21.3305V22.4461H12.5685V21.3305H18.4315ZM12.5685 18.8159V17.7003H18.432V18.8159H12.5685ZM12.5685 23.1459H18.432V24.2615H12.5685V23.1459ZM18.4315 15.9141V17.0007L12.5685 17.0004V15.9139L18.4315 15.9141ZM12.5685 26.0935V24.961H18.432L18.4318 26.0935H12.5685ZM27.6502 9.77423H21.0875C20.8944 9.77423 20.7376 9.93105 20.7376 10.1241L20.7374 26.4434C20.7374 26.6364 20.8942 26.7932 21.0873 26.7932H27.65C27.843 26.7932 27.9998 26.6364 27.9998 26.4434L28 10.1241C28 9.93105 27.8438 9.77423 27.6502 9.77423ZM21.4374 18.8149V17.6993H27.3008V18.8149H21.4374ZM27.3008 19.5146V20.6302H21.4374V19.5146H27.3008ZM21.4374 17V15.8844H27.3008V17H21.4374ZM21.4374 15.1848V14.0691H27.3008V15.1848H21.4374ZM21.4374 21.3299H27.3008V22.4455H21.4374V21.3299ZM27.3008 13.3691H21.4374V12.2535H27.3008V13.3691ZM21.4374 23.1455H27.3008V24.2611H21.4374V23.1455ZM27.3008 10.4736V11.5536H21.4374V10.4736H27.3008ZM21.4374 26.0931V24.9606H27.3008V26.0931H21.4374ZM9.91254 20.6535H3.34984C3.15682 20.6535 3 20.8103 3 21.0033V26.4435C3 26.6365 3.15681 26.7933 3.34984 26.7933H9.91254C10.1056 26.7933 10.2624 26.6365 10.2624 26.4435V21.0039C10.2626 20.8106 10.1056 20.6538 9.91254 20.6538V20.6535ZM3.69974 23.1664H9.56316V24.2796H3.69974V23.1664ZM9.56316 21.3534V22.4666H3.69974V21.3534H9.56316ZM3.69974 26.0933V24.9801H9.56316V26.0933H3.69974ZM16.6634 11.6682L24.632 3.69967H20.9719C20.7789 3.69967 20.6221 3.54286 20.6221 3.34984C20.6221 3.15681 20.7789 3 20.9719 3H25.4769C25.6699 3 25.8267 3.15681 25.8267 3.34984V7.8548C25.8267 8.04781 25.6699 8.20463 25.4769 8.20463C25.2839 8.20463 25.127 8.04782 25.127 7.8548V4.19475L16.9112 12.4106C16.7747 12.5471 16.5532 12.5471 16.4161 12.4106L13.8158 9.81028L5.77172 17.8548C5.70358 17.923 5.61368 17.9576 5.52439 17.9576C5.4351 17.9576 5.34541 17.9232 5.27707 17.8548C5.14059 17.7184 5.14059 17.4969 5.27707 17.3604L13.569 9.0685C13.7054 8.93203 13.9269 8.93203 14.064 9.0685L16.6634 11.6682Z" stroke="#817AF3" stroke-width="0.2" mask="url(#path-2-outside-1_1_274)"/>
</svg>

<svg xmlns="http://www.w3.org/2000/svg" width="30" height="30" fill="none"><rect width="30" height="30" fill="#ECEAFF" rx="4"/><mask id="a" width="27" height="25" x="2" y="2" fill="#000" maskUnits="userSpaceOnUse"><path fill="#fff" d="M2 2h27v25H2z"/><path d="M18.781 15.214h-6.563a.35.35 0 0 0-.35.35v10.88c0 .193.157.35.35.35h6.563a.35.35 0 0 0 .35-.35v-10.88a.35.35 0 0 0-.35-.35Zm-6.212 5.417v-1.115h5.863v1.115h-5.863Zm5.862.7v1.115h-5.863V21.33h5.864Zm-5.863-2.515V17.7h5.864v1.116h-5.863Zm0 4.33h5.864v1.116h-5.863v-1.116Zm5.864-7.232v1.087h-5.863v-1.087h5.862Zm-5.863 10.18V24.96h5.863v1.133h-5.863ZM27.65 9.773h-6.563a.35.35 0 0 0-.35.35v16.32c0 .192.157.35.35.35h6.563a.35.35 0 0 0 .35-.35v-16.32a.35.35 0 0 0-.35-.35Zm-6.213 9.04V17.7h5.864v1.116h-5.864Zm5.864.7v1.116h-5.864v-1.115h5.864ZM21.437 17v-1.116h5.864V17h-5.864Zm0-1.815v-1.116h5.864v1.116h-5.864Zm0 6.145h5.864v1.116h-5.864V21.33Zm5.864-7.96h-5.864v-1.116h5.864v1.115Zm-5.864 9.775h5.864v1.116h-5.864v-1.116Zm5.864-12.671v1.08h-5.864v-1.08h5.864Zm-5.864 15.62V24.96h5.864v1.132h-5.864Zm-11.524-5.44H3.35a.35.35 0 0 0-.35.35v5.44c0 .193.157.35.35.35h6.563a.35.35 0 0 0 .35-.35v-5.44a.35.35 0 0 0-.35-.35ZM3.7 23.166h5.863v1.114H3.7v-1.114Zm5.863-1.813v1.114H3.7v-1.114h5.863ZM3.7 26.093V24.98h5.863v1.113H3.7Zm12.963-14.425L24.632 3.7h-3.66a.35.35 0 0 1 0-.7h4.505a.35.35 0 0 1 .35.35v4.505a.35.35 0 0 1-.7 0v-3.66l-8.216 8.216a.35.35 0 0 1-.495 0l-2.6-2.6-8.044 8.044a.35.35 0 1 1-.495-.495L13.57 9.07a.35.35 0 0 1 .495 0l2.6 2.6Z"/></mask><path fill="#817AF3" d="M18.781 15.214h-6.563a.35.35 0 0 0-.35.35v10.88c0 .193.157.35.35.35h6.563a.35.35 0 0 0 .35-.35v-10.88a.35.35 0 0 0-.35-.35Zm-6.212 5.417v-1.115h5.863v1.115h-5.863Zm5.862.7v1.115h-5.863V21.33h5.864Zm-5.863-2.515V17.7h5.864v1.116h-5.863Zm0 4.33h5.864v1.116h-5.863v-1.116Zm5.864-7.232v1.087h-5.863v-1.087h5.862Zm-5.863 10.18V24.96h5.863v1.133h-5.863ZM27.65 9.773h-6.563a.35.35 0 0 0-.35.35v16.32c0 .192.157.35.35.35h6.563a.35.35 0 0 0 .35-.35v-16.32a.35.35 0 0 0-.35-.35Zm-6.213 9.04V17.7h5.864v1.116h-5.864Zm5.864.7v1.116h-5.864v-1.115h5.864ZM21.437 17v-1.116h5.864V17h-5.864Zm0-1.815v-1.116h5.864v1.116h-5.864Zm0 6.145h5.864v1.116h-5.864V21.33Zm5.864-7.96h-5.864v-1.116h5.864v1.115Zm-5.864 9.775h5.864v1.116h-5.864v-1.116Zm5.864-12.671v1.08h-5.864v-1.08h5.864Zm-5.864 15.62V24.96h5.864v1.132h-5.864Zm-11.524-5.44H3.35a.35.35 0 0 0-.35.35v5.44c0 .193.157.35.35.35h6.563a.35.35 0 0 0 .35-.35v-5.44a.35.35 0 0 0-.35-.35ZM3.7 23.166h5.863v1.114H3.7v-1.114Zm5.863-1.813v1.114H3.7v-1.114h5.863ZM3.7 26.093V24.98h5.863v1.113H3.7Zm12.963-14.425L24.632 3.7h-3.66a.35.35 0 0 1 0-.7h4.505a.35.35 0 0 1 .35.35v4.505a.35.35 0 0 1-.7 0v-3.66l-8.216 8.216a.35.35 0 0 1-.495 0l-2.6-2.6-8.044 8.044a.35.35 0 1 1-.495-.495L13.57 9.07a.35.35 0 0 1 .495 0l2.6 2.6Z"/><path stroke="#817AF3" stroke-width=".2" d="M18.781 15.214h-6.563a.35.35 0 0 0-.35.35v10.88c0 .193.157.35.35.35h6.563a.35.35 0 0 0 .35-.35v-10.88a.35.35 0 0 0-.35-.35Zm-6.212 5.417v-1.115h5.863v1.115h-5.863Zm5.862.7v1.115h-5.863V21.33h5.864Zm-5.863-2.515V17.7h5.864v1.116h-5.863Zm0 4.33h5.864v1.116h-5.863v-1.116Zm5.864-7.232v1.087h-5.863v-1.087h5.862Zm-5.863 10.18V24.96h5.863v1.133h-5.863ZM27.65 9.773h-6.563a.35.35 0 0 0-.35.35v16.32c0 .192.157.35.35.35h6.563a.35.35 0 0 0 .35-.35v-16.32a.35.35 0 0 0-.35-.35Zm-6.213 9.04V17.7h5.864v1.116h-5.864Zm5.864.7v1.116h-5.864v-1.115h5.864ZM21.437 17v-1.116h5.864V17h-5.864Zm0-1.815v-1.116h5.864v1.116h-5.864Zm0 6.145h5.864v1.116h-5.864V21.33Zm5.864-7.96h-5.864v-1.116h5.864v1.115Zm-5.864 9.775h5.864v1.116h-5.864v-1.116Zm5.864-12.671v1.08h-5.864v-1.08h5.864Zm-5.864 15.62V24.96h5.864v1.132h-5.864Zm-11.524-5.44H3.35a.35.35 0 0 0-.35.35v5.44c0 .193.157.35.35.35h6.563a.35.35 0 0 0 .35-.35v-5.44a.35.35 0 0 0-.35-.35ZM3.7 23.166h5.863v1.114H3.7v-1.114Zm5.863-1.813v1.114H3.7v-1.114h5.863ZM3.7 26.093V24.98h5.863v1.113H3.7Zm12.963-14.425L24.632 3.7h-3.66a.35.35 0 0 1 0-.7h4.505a.35.35 0 0 1 .35.35v4.505a.35.35 0 0 1-.7 0v-3.66l-8.216 8.216a.35.35 0 0 1-.495 0l-2.6-2.6-8.044 8.044a.35.35 0 1 1-.495-.495L13.57 9.07a.35.35 0 0 1 .495 0l2.6 2.6Z" mask="url(#a)"/></svg>
